public/support.svg

<svg width="37" height="31" viewBox="0 0 37 31" fill="none" xmlns="http://www.w3.org/2000/svg">
<path d="M31.7959 16.5425V14.4065C31.7959 10.8261 30.3736 7.39229 27.8419 4.86055C25.3101 2.32881 21.8764 0.906494 18.2959 0.906494C14.7155 0.906494 11.2817 2.32881 8.75001 4.86055C6.21826 7.39229 4.79595 10.8261 4.79595 14.4065V16.5425C3.22269 17.2352 1.93515 18.4474 1.14888 19.9761C0.362611 21.5048 0.125338 23.2571 0.476783 24.9399C0.828228 26.6226 1.74706 28.1335 3.07945 29.2197C4.41185 30.3059 6.07693 30.9014 7.79595 30.9065H10.7959V15.9065H7.79595V14.4065C7.79595 11.6217 8.90219 8.95099 10.8713 6.98187C12.8405 5.01274 15.5112 3.90649 18.2959 3.90649C21.0807 3.90649 23.7514 5.01274 25.7206 6.98187C27.6897 8.95099 28.7959 11.6217 28.7959 14.4065V15.9065H25.7959V27.9065H19.7959V30.9065H28.7959C30.515 30.9014 32.18 30.3059 33.5124 29.2197C34.8448 28.1335 35.7637 26.6226 36.1151 24.9399C36.4666 23.2571 36.2293 21.5048 35.443 19.9761C34.6567 18.4474 33.3692 17.2352 31.7959 16.5425ZM7.79595 27.9065C6.60247 27.9065 5.45788 27.4324 4.61397 26.5885C3.77005 25.7446 3.29595 24.6 3.29595 23.4065C3.29595 22.213 3.77005 21.0684 4.61397 20.2245C5.45788 19.3806 6.60247 18.9065 7.79595 18.9065V27.9065ZM28.7959 27.9065V18.9065C29.9894 18.9065 31.134 19.3806 31.9779 20.2245C32.8218 21.0684 33.2959 22.213 33.2959 23.4065C33.2959 24.6 32.8218 25.7446 31.9779 26.5885C31.134 27.4324 29.9894 27.9065 28.7959 27.9065Z" fill="#253D4E"/>
</svg>

<svg xmlns="http://www.w3.org/2000/svg" width="37" height="31" fill="none"><path fill="#253D4E" d="M31.796 16.543v-2.136a13.5 13.5 0 0 0-27 0v2.136a7.5 7.5 0 0 0 3 14.364h3v-15h-3v-1.5a10.5 10.5 0 1 1 21 0v1.5h-3v12h-6v3h9a7.5 7.5 0 0 0 3-14.364m-24 11.364a4.5 4.5 0 1 1 0-9zm21 0v-9a4.5 4.5 0 1 1 0 9"/></svg>
